img/services/02.svg

<svg width="40" height="22" viewBox="0 0 40 22" fill="none" xmlns="http://www.w3.org/2000/svg">
<path d="M13.9111 5.90683L7.61136 5.90683L7.2617 6.57998L13.5258 6.57998L10.788 11.3623H4.77758L4.42792 12.0355H10.4027L7.88134 16.4399H2.11147L3.6632 13.4568V12.0355H3.68174V11.3623H3.6632V6.57998H3.68174V5.90683H3.6632V5.5489H3.68174V4.21953H8.46824L10.2344 0.824219H16.8207L13.9111 5.90683Z" fill="white"/>
<path d="M17.5964 0.824219L14.6868 5.90683H20.1568L23.0664 0.824219H17.5964Z" fill="white"/>
<path d="M23.842 0.824219L20.9324 5.90683L26.8217 5.90683L28.1227 3.36828L36.9616 21.1767H40.3524L29.7655 0.824219H23.842Z" fill="white"/>
<path d="M26.4767 6.57998L20.5471 6.57998L17.8094 11.3623H24.0258L26.4767 6.57998Z" fill="white"/>
<path d="M23.6808 12.0355H17.424L14.9027 16.4399H21.4236L23.6808 12.0355Z" fill="white"/>
<path d="M21.0786 17.113H14.5173L12.191 21.1767H18.996L21.0786 17.113Z" fill="white"/>
<path d="M11.4153 21.1767L13.7417 17.113H8.27163L5.94531 21.1767H11.4153Z" fill="white"/>
<path d="M5.16967 21.1767L7.49599 17.113H1.76131L-0.352539 21.1767H5.16967Z" fill="white"/>
<path d="M14.3014 6.57998H19.7714L17.0337 11.3623H11.5637L14.3014 6.57998Z" fill="white"/>
<path d="M11.1783 12.0355L8.65699 16.4399H14.127L16.6484 12.0355H11.1783Z" fill="white"/>
<path d="M24.8872 13.472H27.855V16.4398H24.8872V13.472Z" fill="white"/>
<path d="M24.8872 17.1819H27.855V20.1497H24.8872V17.1819Z" fill="white"/>
<path d="M31.5645 13.472H28.5967V16.4398H31.5645V13.472Z" fill="white"/>
<path d="M28.5967 17.1819H31.5645V20.1497H28.5967V17.1819Z" fill="white"/>
</svg>

<svg width="40" height="22" viewBox="0 0 40 22" fill="none" xmlns="http://www.w3.org/2000/svg"><path d="M13.911 5.907h-6.3l-.35.673h6.265l-2.738 4.782h-6.01l-.35.674h5.975L7.88 16.44H2.11l1.552-2.983v-1.421h.019v-.674h-.019V6.58h.019v-.673h-.019v-.358h.019v-1.33h4.786L10.234.825h6.587l-2.91 5.083zM17.596.824l-2.91 5.083h5.47l2.91-5.083h-5.47zm6.246 0l-2.91 5.083h5.89l1.3-2.539 8.84 17.809h3.39L29.766.824h-5.924z" fill="#fff"/><path d="M26.477 6.58h-5.93l-2.738 4.782h6.217l2.45-4.782zm-2.797 5.456h-6.256l-2.521 4.404h6.52l2.258-4.405zm-2.601 5.077h-6.562l-2.326 4.064h6.805l2.083-4.064zm-9.664 4.064l2.327-4.064h-5.47l-2.327 4.064h5.47zm-6.245 0l2.326-4.064H1.761l-2.114 4.064H5.17zM14.301 6.58h5.47l-2.737 4.782h-5.47L14.3 6.58zm-3.123 5.456L8.657 16.44h5.47l2.521-4.405h-5.47zm13.709 1.436h2.968v2.968h-2.968v-2.968zm0 3.71h2.968v2.968h-2.968v-2.968zm6.677-3.71h-2.967v2.968h2.967v-2.968zm-2.967 3.71h2.967v2.968h-2.967v-2.968z" fill="#fff"/></svg>
